X:1
T:Rolling Home
M:3/4
L:1/8
K:C
 EF| G3 AG F| E G3 EG| e3 cG E| D4 Bc| d3 cB D| A G3 GA| B3 AG B,|\
 C4||

